styles/emoji-one/1f1f2-1f1f7.svg

<svg xmlns="http://www.w3.org/2000/svg" viewBox="0 0 64 64" enable-background="new 0 0 64 64"><circle fill="#699635" cx="32" cy="32" r="30"/><g fill="#ffce31"><path d="m47.68 28.8c-1.485 7.303-7.94 12.8-15.68 12.8s-14.195-5.497-15.68-12.8c-.209 1.034-.32 2.104-.32 3.2 0 8.837 7.164 16 16 16s16-7.163 16-16c0-1.096-.111-2.166-.32-3.2"/><path d="m26.561 32l5.439-3.75 5.439 3.75-2.059-6.105 5.421-3.895h-6.711l-2.09-6-2.03 6h-6.77l5.415 3.895z"/></g></svg>

<svg xmlns="http://www.w3.org/2000/svg" viewBox="0 0 64 64"><circle fill="#699635" cx="32" cy="32" r="30"/><g fill="#ffce31"><path d="M47.68 28.8C46.195 36.103 39.74 41.6 32 41.6s-14.195-5.497-15.68-12.8A16.138 16.138 0 0 0 16 32c0 8.837 7.164 16 16 16s16-7.163 16-16c0-1.096-.111-2.166-.32-3.2"/><path d="M26.561 32L32 28.25 37.439 32l-2.059-6.105L40.801 22H34.09L32 16l-2.03 6H23.2l5.415 3.895z"/></g></svg>
